X: 10541
T: HAD I A HEARD &c.
Q: "Slow"
%R: air
B: "Edinburgh Repository of Music" v.1 p.54 #1
F: http://digital.nls.uk/special-collections-of-printed-music/pageturner.cfm?id=87776133
Z: 2015 John Chambers <jc:trillian.mit.edu>
M: C
L: 1/8
K: G
G |\
d>edB e>fge | d>BAB G2zd |\
g>fga gfed | e>dg>B d2zd |\
g>fga gfed |
edcB He2 (3(dfa) |\
g>fe>d e>fHg {f2g2f2a2g2f2g} e | d<B TA>B G3G |\
"_Sy."d>edB g>age | d<B TA>B G3 |]
